X: 36770
T: Shepherd's Daughter, The
R: reel
M: 4/4
K: Adorian
e3g edBd|eA~A2 eA (3B^cd|e2ge edB=c|dG~G2 dG (3B^cd|
e2ge edBd|eA~A2 B2BA|GABd efga|bgaf g2fg||
eaaf g2fg|eaag edBd|eaaf g2fg|egde gdBd|
eaaf g2fg|eaab =c'abg|eaaf g2fg|egde gd (3B^cd||

